X:1
T:I’m Going Home
T:I’m Going Home
T:William Miller
T:William Hunter, 1838
T:Public Domain Courtesy of the Cyber Hymnal™
C:William Miller
Z:Public Domain
Z:Courtesy of the Cyber Hymnal™
%%score ( 1 2 ) 3
L:1/8
M:3/2
K:G
V:1 treble 
V:2 treble 
V:3 bass 
V:1
 G2 [GB]2 [GB]2 | [GB]6 G2 [FA]2 [GB]2 | [FA]6 G2 [GB]2 [Gd]2 | [Gd]6 G2 [GB]2 [FA]2 | %4
w: 1.~My heav’n- ly|home is bright and|fair, Nor pain nor|death can en- ter|
w: 2.~My Fa- ther’s|home is built on|high, Far, far a-|bove the star- ry|
w: 3.~Let o- thers|seek a home be-|low, Which flames de-|vour, or waves o’er-|
 G6 [DG]2 [GB]2 [GB]2 | [GB]6 G2 [FA]2 [GB]2 | [FA]6 G2 [GB]2 [Gd]2 | [Gd]6 G2 [GB]2 [FA]2 | G6 || %9
w: there; Its glit- t’ring|towers the sun out-|shine, That heav’n- ly|man- sion shall be|mine.|
w: sky; When from this|earth- ly pri- son|free, That heav’n- ly|man- sion mine shall|be.|
w: flow; Be mine a|hap- pier lot to|own A heav’n- ly|man- sion near the|throne.|
"^Refrain" G2 [GB]2 [GB]2 | [GB]6 G2 [FA]2 [GB]2 | [FA]6 G2 [GB]2 [Gd]2 | [Gd]6 G2 [GB]2 [FA]2 | %13
w: ||||
w: ||||
w: ||||
 G6 [DG]2 [GB]2 [GB]2 | [GB]6 G2 [FA]2 [GB]2 | [FA]6 G2 [GB]2 [Gd]2 | [Gd]6 G2 [GB]2 [FA]2 | G6 |] %18
w: |||||
w: |||||
w: |||||
V:2
 G2 x4 | x6 G2 x4 | x6 G2 x4 | x6 G2 x4 | G6 x6 | x6 G2 x4 | x6 G2 x4 | x12 | G6 || G2 x4 | %10
 x6 G2 x4 | x6 G2 x4 | x6 G2 x4 | G6 x6 | x6 G2 x4 | x6 G2 x4 | x12 | G6 |] %18
V:3
 [G,B,]2 [G,D]2 [G,D]2 | [G,D]6 [B,D]2 [A,D]2 [G,D]2 | [D,D]6 [G,B,]2 [G,D]2 [G,B,]2 | %3
w: ~ ~ ~|~ ~ ~ ~|~ ~ ~ ~|
 [G,B,]6 [G,B,]2 [D,D]2 [D,C]2 | [G,,B,]6 [G,B,]2 [G,D]2 [G,D]2 | [G,D]6 [B,D]2 [A,D]2 [G,D]2 | %6
w: ~ ~ ~ ~|~ ~ ~ ~|~ ~ ~ ~|
 [D,D]6 [G,B,]2 [G,D]2 [G,B,]2 | [G,B,]6 [G,B,]2 [D,D]2 [D,C]2 | [G,,B,]6 || %9
w: ~ ~ ~ ~|~ ~ ~ ~|~|
 [G,B,]2 [G,D]2 [G,D]2 | [G,D]6 [B,D]2 [A,D]2 [G,D]2 | [D,D]6 [G,B,]2 [G,D]2 [G,B,]2 | %12
w: I’m go- ing|home, I’m go- ing|home, I’m go- ing|
 [G,B,]6 [G,B,]2 [D,D]2 [D,C]2 | [G,,B,]6 [G,B,]2 [G,D]2 [G,D]2 | [G,D]6 [B,D]2 [A,D]2 [G,D]2 | %15
w: home to die no|more, To die no|more, to die no|
 [D,D]6 [G,B,]2 [G,D]2 [G,B,]2 | [G,B,]6 [G,B,]2 [D,D]2 [D,C]2 | [G,,B,]6 |] %18
w: more, I’m go- ing|home to die no|more.|

